X: 28193
T: Mrs. Anderson's Wedding
R: waltz
M: 3/4
K: Gmajor
|:G Bc|d2 d^c de|d2 gf ed|B2 B^A Bc|B2 GB DB|
A2 A^G AB|c2 AD FD|1 G3 F GE|D3:|2 G3 B dB|G3||
|:G Bd|e2 e^d ef|g2 f2 e2|d2 gd Bd|G3 D GB|
A2 A^G AB|c2 A2 D2|1 G3 F GE|D3:|2 G3 B dB|G3||

